X:1
T:Title
%%score { ( 1 3 6 ) | ( 2 4 5 ) }
L:1/8
Q:1/4=112
M:4/4
K:C
V:1 treble nm="Grand Piano"
V:3 treble 
V:6 treble 
V:2 bass 
V:4 bass 
V:5 bass 
V:1
 [Ec]4 [Fc]2 [Fc]2 | [Ec]6 [EG]2 | [FA]2 [EG]2 [FB]2 [Ec]2 | d4 G4 | e4 d2 c2 | B6 D2 | %6
w: J.~Lincoln~Hall * *||||||
 [^Fc]2 [Fc]2 [EB]2 [FA]2 | G2 G2 A2 B2 | [Ec]4 [Fc]2 [Fc]2 | [Ec]6 [EG]2 | %10
w: ||||
 [FA]2 [EG]2 [FB]2 [Ec]2 | d4 G4 | e4 d2 c2 | c4 c4 | G2 e2 [^Fe]2 [=Fd]2 | c2 z2 z4 | %16
w: ||||||
 [EGc]2 [Gc]2 [EGc]2 [Gc]2 | [_E^FAc]2 [FAc]2 [=EGc]2 [Gc]2 | [GBdf]2 [Bdf]2 [GBdf]2 [Bdf]2 | %19
w: |||
 [Gce]2 [ce]2 [ce]2 [ce]2 | [Acf]2 [cf]2 [Acf]2 [Acf]2 | [Gce]2 [ce]2 [Gce]2 [ce]2 | %22
w: |||
 [Acd^f]2 [cdf]2 [Acdf]2 [cdf]2 | [GBg]2 [Bf]2 [Be]2 [Bd]2 | [Ec]4 [EG]4 | [_EA]4 [=EG]4 | %26
w: ||||
 [Fd]4 [FB]4 | [Ec]6 z2 | e4 d2 c2 | c4 c4 | G2 e2 [^Fe]2 [=Fd]2 | [Ec]6 z2 |] %32
w: ||||||
V:2
 [C,G,]4 [F,A,]2 [F,A,]2 | [C,G,]6 [C,C]2 | [F,C]2 [C,C]2 [D,G,]2 [C,G,]2 | [G,B,F]4 [G,B,F]4 | %4
 [CG]4 [B,DG]2 [A,D^F]2 | [G,DG]6[K:bass] D,2 | [D,A,]2 [D,A,]2 [D,D]2 [D,C]2 | %7
 [G,B,]2 G,2 A,2 B,2 | [C,G,]4 [F,A,]2 [F,A,]2 | [C,G,]6 [C,C]2 | [F,C]2 [C,C]2 [D,G,]2 [C,G,]2 | %11
 [G,B,F]4 [G,B,F]4 | [CG]4 [B,DG]2 [_B,EG]2 | [A,FA]4 [^G,_E^F]4 | %14
 [G,E]2 [G,CG]2[K:bass] [D,C]2 [G,B,]2 | z2[K:treble] cc c2 c2 | z4[K:bass] z2 E2 | %17
 z2 _E2 z2[K:treble] =E2 | z4 z2 G2 | z2 G2 G2 G2 | z2 A2 B,2 C2 | z2 G2 z2 G2 | z2 A2 z2 A2 | %23
 z2 G2 G2 F2 | C,2 E,2 E,2 z E | C,2 ^F,2 G,2 G,2 | G,,2 D,2 [D,F,G,B,]2 z F | %27
 C,2 [E,G,]2 [E,G,]2 [E,G,]2 | [CG]4 [B,DG]2 [_B,EG]2 | [A,FA]4 [^G,_E^F]4 | %30
 [G,E]2 [G,CG]2[K:bass] [D,C]2 [G,B,]2 | [C,G,C]6 z2 |] %32
V:3
 x8 | x8 | x8 | x8 | x8 | x8 | x8 | x8 | x8 | x8 | x8 | x8 | x8 | x8 | x8 | E6 z2 | x8 | x8 | x8 | %19
 x8 | x8 | x8 | x8 | x8 | z2 [G,C]2 [G,C]2 [G,C]2 | z2 C2 C2 C2 | z2 [F,G,B,]2 z2 z G | %27
 z2 C2 C2 C2 | x8 | x8 | x8 | x8 |] %32
V:4
 x8 | x8 | x8 | x8 | x8 | x6[K:bass] x2 | x8 | x8 | x8 | x8 | x8 | x8 | x8 | x8 | x4[K:bass] x4 | %15
 [C,G,C]6[K:treble] z2 | z2 E2[K:bass] z2 z E, | A,4 G,4[K:treble] | z2 G2 z2 z G, | C6 z2 | %20
 A,4 z4 | G,4 C4 | A,4 D4 | D6 z2 | z4 z2 E,2 | x8 | z4 z2 [D,F,G,]2 | x8 | x8 | x8 | %30
 x4[K:bass] x4 | x8 |] %32
V:5
 x8 | x8 | x8 | x8 | x8 | x6[K:bass] x2 | x8 | x8 | x8 | x8 | x8 | x8 | x8 | x8 | x4[K:bass] x4 | %15
 x2[K:treble] x6 | C4[K:bass] G,4 | x6[K:treble] x2 | D4 B,4 | x8 | x8 | x8 | x8 | x8 | x8 | x8 | %26
 x8 | x8 | x8 | x8 | x4[K:bass] x4 | x8 |] %32
V:6
 x8 | x8 | x8 | x8 | x8 | x8 | x8 | x8 | x8 | x8 | x8 | x8 | x8 | x8 | x8 | x8 | x8 | x8 | x8 | %19
 x8 | x8 | x8 | x8 | x8 | x8 | x8 | z4 z2 B,2 | x8 | x8 | x8 | x8 | x8 |] %32

